packages/portfolio2024/public/icons/mainCharacter.svg

<svg width="195" height="103" viewBox="0 0 195 103" fill="none" xmlns="http://www.w3.org/2000/svg">
<g clip-path="url(#clip0_131_5905)">
<path d="M115.174 27.6197C118.086 24.3132 123.282 20.7586 125.516 19.3946C139.853 23.2948 145.559 61.3542 119.73 86.6987C93.9462 111.998 50.8519 100.784 43.79 75.946C42.6755 72.0264 42.0102 68.0845 41.6911 64.2059C26.2643 49.8698 4.61252 35.8097 3.23911 36.2017C3.2258 36.2085 3.21263 36.215 3.19963 36.2211C3.21005 36.2127 3.22322 36.2062 3.23911 36.2017C5.84331 34.8655 14.3968 19.9534 18.3673 12.6275C18.8337 15.5084 36.783 26.9541 45.6993 32.3169C47.5586 26.4526 49.5398 22.2064 50.5274 20.5055C53.355 15.6357 60.3697 10.459 61.9293 10.1484C63.4889 9.83793 66.5132 10.3203 69.8775 11.9433C73.2417 13.5664 79.0888 24.5172 80.2413 26.3947C81.3938 28.2722 84.8031 37.0127 85.105 38.5948C85.3466 39.8604 84.2787 41.4137 83.7145 42.0321C84.1177 42.4372 85.7935 43.3223 89.2716 43.6213C93.6192 43.9951 111.534 31.7527 115.174 27.6197Z" fill="white"/>
<path d="M45.6993 32.3169C47.5586 26.4526 49.5398 22.2064 50.5274 20.5055C53.355 15.6357 60.3697 10.459 61.9293 10.1484C63.4889 9.83793 66.5132 10.3203 69.8775 11.9433C73.2417 13.5664 79.0888 24.5172 80.2413 26.3947C81.3938 28.2722 84.8031 37.0127 85.105 38.5948C85.3466 39.8604 84.2787 41.4137 83.7146 42.0321C84.1177 42.4372 85.7935 43.3223 89.2716 43.6213C93.6192 43.9951 111.534 31.7527 115.174 27.6197C118.086 24.3132 123.282 20.7586 125.516 19.3946C139.853 23.2948 145.559 61.3542 119.73 86.6987C93.9462 111.998 50.8519 100.784 43.79 75.946C42.6755 72.0264 42.0102 68.0845 41.6911 64.2059M45.6993 32.3169C43.0754 40.5926 40.6944 52.0908 41.6911 64.2059M45.6993 32.3169C36.783 26.9541 18.8337 15.5084 18.3673 12.6275C14.3765 19.9908 5.75571 35.0182 3.19963 36.2211C4.11069 35.4844 26.0859 49.704 41.6911 64.2059" stroke="#FF80AE" stroke-width="3" stroke-linejoin="round"/>
<path d="M22.1846 31.9426C22.6125 31.51 21.9584 30.42 21.5779 29.9291C23.7595 30.4468 24.3328 30.3158 24.8978 29.6486C25.4371 29.0118 24.8645 27.5041 22.4179 26.3894C20.4606 25.4976 17.3602 25.2337 16.0397 25.2765C15.988 26.0654 19.618 31.3335 20.0713 31.7081C20.5246 32.0828 21.6496 32.4833 22.1846 31.9426Z" fill="#FF80AE"/>
<path d="M21.1668 37.6157C21.1238 37.0993 20.0564 36.9193 19.5281 36.8939C21.0706 35.7687 21.3031 35.3251 21.1841 34.5903C21.0704 33.8889 19.7779 33.425 17.7024 34.3913C16.0421 35.1643 14.1554 37.0245 13.4522 37.9027C13.9342 38.3728 19.3522 38.9395 19.8455 38.8535C20.3389 38.7675 21.2206 38.2611 21.1668 37.6157Z" fill="#FF80AE"/>
<path d="M31.7558 35.394C30.2288 34.7432 28.8524 35.4372 28.7642 36.1306C28.5552 37.7728 30.0641 39.6203 32.0309 39.7517M32.1443 36.9187C33.3037 37.1047 34.8141 38.2195 34.7506 39.3969C34.6411 41.4235 32.1245 41.4129 30.9913 41.1656M27.3911 34.7385C27.4997 33.8424 28.1682 32.0687 29.9731 32.1419C31.778 32.2152 33.3759 34.2444 33.9493 35.2499M35.1055 35.7426C35.3228 36.2157 35.9691 37.3066 36.8156 37.8848C37.8738 38.6076 38.5972 39.7313 37.7104 40.6582C36.8236 41.585 35.7935 41.3092 35.4517 41.5985M28.1405 39.1352C28.1758 40.292 28.685 42.7814 30.4397 43.4857C32.1944 44.1899 33.5426 43.0864 33.9974 42.4466M26.4433 34.6523C25.5756 35.4061 23.9281 36.451 24.5047 38.1755C25.0814 39.8999 26.6543 41.3833 27.4447 41.6657M32.2425 31.6871C33.5375 32.2389 34.2222 30.8887 35.9309 32.0083C38.0668 33.4078 37.7176 35.7683 37.8327 36.5241M35.5909 43.4518C35.4608 44.4837 34.7666 46.5147 33.0301 46.3836C30.8594 46.2197 29.8657 45.0895 29.5404 44.5703M28.0856 43.6241C27.9468 43.565 24.6451 42.5929 24.3073 42.2315C23.9695 41.8701 23.6046 39.6487 23.39 38.7418M23.4273 36.4744C23.2716 36.0275 22.7572 34.8936 22.8633 33.9507C23.0793 32.0312 25.0273 31.8198 27.6197 31.8916" stroke="#FF80AE" stroke-width="1.5" stroke-linecap="round" stroke-linejoin="round"/>
<path d="M59.6559 65.9237C57.9834 63.9463 55.8015 63.6716 53.9721 65.2192C51.9946 66.8921 52.2794 68.9828 53.9329 71.1883C55.5863 73.3938 58.2855 74.0787 59.5024 73.2615C60.7192 72.4444 61.7465 68.3954 59.6559 65.9237Z" fill="#FF80AE"/>
<path d="M105.773 69.317C103.993 67.2124 100.185 67.4719 98.4547 68.9353C97.5338 69.7141 95.6024 72.8318 97.2558 75.0372C98.9092 77.2427 103.021 78.4287 104.669 77.0348C106.543 75.4501 108.073 72.0359 105.773 69.317Z" fill="#FF80AE"/>
<path d="M75.1845 78.0182C72.6943 77.5805 69.5775 73.6448 70.5662 72.8085C71.5549 71.9723 72.9003 75.0924 75.1662 75.4899C77.6563 75.9267 79.092 72.0285 79.4628 73.5507C79.6338 74.253 77.9981 78.5128 75.1845 78.0182Z" fill="#FF80AE"/>
<path d="M191.196 19.0945C187.958 16.4277 180.89 21.6115 177.761 24.5368C179.94 9.22007 178.68 5.3639 173.746 1.90425C169.037 -1.39806 159.051 3.49032 152.942 21.0055C148.054 35.0177 148.195 56.4862 149.32 65.532C154.766 65.3877 188.633 37.1142 190.918 33.7625C193.204 30.4108 195.244 22.4281 191.196 19.0945Z" fill="#FF80AE"/>
</g>
<defs>
<clipPath id="clip0_131_5905">
<rect width="195" height="103" fill="white"/>
</clipPath>
</defs>
</svg>

<svg xmlns="http://www.w3.org/2000/svg" width="195" height="103" fill="none">
  <path class="mainChracterBg" fill="#fff" d="M115.17 27.62c2.92-3.3 8.11-6.86 10.35-8.23 14.33 3.9 20.04 41.96-5.79 67.3-25.78 25.3-68.88 14.1-75.94-10.74a61.25 61.25 0 0 1-2.1-11.74C26.26 49.87 4.61 35.8 3.24 36.2c2.6-1.34 11.16-16.26 15.13-23.58.46 2.88 18.41 14.32 27.33 19.69 1.86-5.87 3.84-10.11 4.83-11.81 2.82-4.87 9.84-10.05 11.4-10.36 1.56-.31 4.58.17 7.95 1.8 3.36 1.62 9.2 12.57 10.36 14.44 1.15 1.88 4.56 10.62 4.87 12.2.24 1.27-.83 2.82-1.4 3.44.4.4 2.08 1.3 5.56 1.6 4.35.37 22.26-11.88 25.9-16.01Z"/>
  <path stroke="#FF80AE" stroke-linejoin="round" stroke-width="3" d="M45.7 32.32c1.86-5.87 3.84-10.11 4.83-11.81 2.82-4.87 9.84-10.05 11.4-10.36 1.56-.31 4.58.17 7.95 1.8 3.36 1.62 9.2 12.57 10.36 14.44 1.15 1.88 4.56 10.62 4.87 12.2.24 1.27-.83 2.82-1.4 3.44.4.4 2.08 1.3 5.56 1.6 4.35.37 22.26-11.88 25.9-16.01 2.92-3.3 8.11-6.86 10.35-8.23 14.33 3.9 20.04 41.96-5.79 67.3-25.78 25.3-68.88 14.1-75.94-10.74a61.25 61.25 0 0 1-2.1-11.74m4-31.9c-2.61 8.28-5 19.78-4 31.9m4-31.9c-8.9-5.36-26.86-16.8-27.32-19.68-4 7.36-12.61 22.39-15.17 23.6.91-.75 22.89 13.47 38.5 27.98"/>
  <path fill="#FF80AE" d="M22.18 31.94c.43-.43-.22-1.52-.6-2.01 2.18.52 2.75.39 3.32-.28.54-.64-.04-2.15-2.48-3.26-1.96-.9-5.06-1.16-6.38-1.11-.05.79 3.58 6.05 4.03 6.43.45.37 1.58.77 2.11.23ZM21.17 37.62c-.05-.52-1.11-.7-1.64-.73 1.54-1.12 1.77-1.56 1.65-2.3-.11-.7-1.4-1.17-3.48-.2a14.68 14.68 0 0 0-4.25 3.51c.48.47 5.9 1.04 6.4.95.49-.08 1.37-.59 1.32-1.23Z"/>
  <path stroke="#FF80AE" stroke-linecap="round" stroke-linejoin="round" stroke-width="1.5" d="M31.76 35.4c-1.53-.66-2.9.04-3 .73-.2 1.64 1.3 3.49 3.27 3.62m.11-2.83c1.16.18 2.67 1.3 2.61 2.48-.1 2.02-2.63 2.01-3.76 1.77m-3.6-6.43c.11-.9.78-2.67 2.58-2.6 1.8.08 3.4 2.1 3.98 3.11m1.16.5c.21.47.86 1.56 1.7 2.13 1.06.73 1.79 1.85.9 2.78-.89.93-1.92.65-2.26.94m-7.31-2.46c.04 1.15.54 3.64 2.3 4.35 1.75.7 3.1-.4 3.56-1.04m-7.56-7.8c-.86.76-2.51 1.8-1.94 3.53.58 1.72 2.15 3.2 2.94 3.49m4.8-9.98c1.3.55 1.98-.8 3.7.32 2.13 1.4 1.78 3.76 1.9 4.51m-2.25 6.93c-.13 1.03-.82 3.06-2.56 2.93-2.17-.16-3.16-1.3-3.49-1.81m-1.45-.95c-.14-.05-3.44-1.03-3.78-1.39-.34-.36-.7-2.58-.92-3.49m.04-2.27c-.16-.44-.67-1.58-.57-2.52.22-1.92 2.17-2.13 4.76-2.06"/>
  <path fill="#FF80AE" d="M59.66 65.92c-1.68-1.97-3.86-2.25-5.69-.7-1.98 1.67-1.7 3.76-.04 5.97 1.66 2.2 4.36 2.89 5.57 2.07 1.22-.82 2.25-4.86.16-7.34ZM105.77 69.32c-1.78-2.1-5.58-1.85-7.32-.38-.92.77-2.85 3.9-1.2 6.1 1.66 2.2 5.77 3.39 7.42 2 1.87-1.59 3.4-5 1.1-7.72ZM75.18 78.02c-2.49-.44-5.6-4.38-4.61-5.21.98-.84 2.33 2.28 4.6 2.68 2.49.44 3.92-3.46 4.3-1.94.16.7-1.47 4.96-4.29 4.47ZM191.2 19.1c-3.24-2.67-10.31 2.51-13.44 5.44 2.18-15.32.92-19.18-4.01-22.64-4.71-3.3-14.7 1.59-20.8 19.1-4.9 14.02-4.75 35.49-3.63 44.53 5.45-.14 39.31-28.42 41.6-31.77 2.28-3.35 4.32-11.33.28-14.67Z"/>
</svg>
